IMB-X-Files/The-Ambassadors-Assets/660d407d6659c161e019e981_Logo-3.svg

<svg fill="none" height="59" viewBox="0 0 184 59" width="184" xmlns="http://www.w3.org/2000/svg"><g fill="#fff"><path d="m36.4121 22.4361v4.974h12.0037c-.3187 2.7516-1.2747 4.8682-2.7619 6.244-1.6996 1.6933-4.4616 3.5982-9.2418 3.5982-7.3298 0-13.0661-5.9265-13.0661-13.2288s5.6301-13.2288 13.0661-13.2288c3.9304 0 6.9048 1.5875 9.0293 3.5983l3.5056-3.4925c-2.9744-2.85738-7.0111-5.07982-12.5349-5.07982-10.0917 0-18.59 8.14892-18.59 18.20282s8.4983 18.2029 18.59 18.2029c5.4176 0 9.5605-1.7991 12.7473-5.0799 3.2931-3.2807 4.3554-7.9373 4.3554-11.6413 0-1.1642-.1062-2.2225-.2125-3.0691z"/><path d="m68.3867 18.3087c-6.4799 0-11.8976 4.974-11.8976 11.7472 0 6.7731 5.3114 11.7472 11.8976 11.7472 6.5861 0 11.8975-4.8682 11.8975-11.6414 0-6.879-5.3114-11.853-11.8975-11.853zm0 18.9437c-3.6118 0-6.6924-2.9633-6.6924-7.0907 0-4.2332 3.0806-7.0906 6.6924-7.0906 3.6117 0 6.6924 2.8574 6.6924 7.0906 0 4.1274-3.0807 7.0907-6.6924 7.0907z"/><path d="m126.493 20.9544h-.212c-1.169-1.3757-3.399-2.6457-6.267-2.6457-5.949 0-11.048 5.0799-11.048 11.7472 0 6.5615 5.099 11.7472 11.048 11.7472 2.868 0 5.098-1.27 6.267-2.6458h.212v1.6933c0 4.4449-2.443 6.879-6.267 6.879-3.187 0-5.099-2.2225-5.949-4.2332l-4.461 1.9049c1.274 3.0691 4.78 6.9848 10.516 6.9848 6.055 0 11.26-3.5982 11.26-12.2763v-21.1661h-4.886v2.0107zm-5.948 16.298c-3.612 0-6.268-3.0691-6.268-7.0907 0-4.1274 2.762-7.0906 6.268-7.0906 3.505 0 6.267 3.069 6.267 7.1964.106 4.0216-2.656 6.9849-6.267 6.9849z"/><path d="m94.8375 18.3087c-6.4799 0-11.8976 4.974-11.8976 11.7472 0 6.7731 5.3114 11.7472 11.8976 11.7472 6.5865 0 11.8975-4.8682 11.8975-11.6414 0-6.879-5.311-11.853-11.8975-11.853zm0 18.9437c-3.6118 0-6.6924-2.9633-6.6924-7.0907 0-4.2332 3.0806-7.0906 6.6924-7.0906 3.6117 0 6.6925 2.8574 6.6925 7.0906 0 4.1274-3.0808 7.0907-6.6925 7.0907z"/><path d="m135.523 6.34982h5.099v35.55908h-5.099z"/><path d="m156.344 37.2524c-2.656 0-4.462-1.1642-5.737-3.5983l15.828-6.4556-.531-1.3758c-.956-2.6458-4.037-7.514-10.092-7.514s-11.154 4.7624-11.154 11.7472c0 6.5615 4.993 11.7472 11.686 11.7472 5.417 0 8.498-3.2808 9.879-5.1857l-4.037-2.6458c-1.381 2.0108-3.187 3.2808-5.842 3.2808zm-.319-14.4988c2.124 0 3.93 1.0583 4.461 2.5399l-10.622 4.4449c-.107-4.8682 3.505-6.9848 6.161-6.9848z"/></g></svg>

<svg width="184" height="59" viewBox="0 0 184 59" fill="none" xmlns="http://www.w3.org/2000/svg">
    <path
        d="M36.4121 22.4361V27.4101H48.4158C48.0971 30.1617 47.1411 32.2783 45.6539 33.6541C43.9543 35.3474 41.1923 37.2523 36.4121 37.2523C29.0823 37.2523 23.346 31.3258 23.346 24.0235C23.346 16.7212 28.9761 10.7947 36.4121 10.7947C40.3425 10.7947 43.3169 12.3822 45.4414 14.393L48.947 10.9005C45.9726 8.04312 41.9359 5.82068 36.4121 5.82068C26.3204 5.82068 17.8221 13.9696 17.8221 24.0235C17.8221 34.0774 26.3204 42.2264 36.4121 42.2264C41.8297 42.2264 45.9726 40.4273 49.1594 37.1465C52.4525 33.8658 53.5148 29.2092 53.5148 25.5052C53.5148 24.341 53.4086 23.2827 53.3023 22.4361H36.4121Z"
        fill="white" />
    <path
        d="M68.3867 18.3087C61.9068 18.3087 56.4891 23.2827 56.4891 30.0559C56.4891 36.829 61.8005 41.8031 68.3867 41.8031C74.9728 41.8031 80.2842 36.9349 80.2842 30.1617C80.2842 23.2827 74.9728 18.3087 68.3867 18.3087ZM68.3867 37.2524C64.7749 37.2524 61.6943 34.2891 61.6943 30.1617C61.6943 25.9285 64.7749 23.0711 68.3867 23.0711C71.9984 23.0711 75.0791 25.9285 75.0791 30.1617C75.0791 34.2891 71.9984 37.2524 68.3867 37.2524Z"
        fill="white" />
    <path
        d="M126.493 20.9544H126.281C125.112 19.5787 122.882 18.3087 120.014 18.3087C114.065 18.3087 108.966 23.3886 108.966 30.0559C108.966 36.6174 114.065 41.8031 120.014 41.8031C122.882 41.8031 125.112 40.5331 126.281 39.1573H126.493V40.8506C126.493 45.2955 124.05 47.7296 120.226 47.7296C117.039 47.7296 115.127 45.5071 114.277 43.4964L109.816 45.4013C111.09 48.4704 114.596 52.3861 120.332 52.3861C126.387 52.3861 131.592 48.7879 131.592 40.1098V18.9437H126.706V20.9544H126.493ZM120.545 37.2524C116.933 37.2524 114.277 34.1833 114.277 30.1617C114.277 26.0343 117.039 23.0711 120.545 23.0711C124.05 23.0711 126.812 26.1401 126.812 30.2675C126.918 34.2891 124.156 37.2524 120.545 37.2524Z"
        fill="white" />
    <path
        d="M94.8375 18.3087C88.3576 18.3087 82.9399 23.2827 82.9399 30.0559C82.9399 36.829 88.2513 41.8031 94.8375 41.8031C101.424 41.8031 106.735 36.9349 106.735 30.1617C106.735 23.2827 101.424 18.3087 94.8375 18.3087ZM94.8375 37.2524C91.2257 37.2524 88.1451 34.2891 88.1451 30.1617C88.1451 25.9285 91.2257 23.0711 94.8375 23.0711C98.4492 23.0711 101.53 25.9285 101.53 30.1617C101.53 34.2891 98.4492 37.2524 94.8375 37.2524Z"
        fill="white" />
    <path d="M135.523 6.34982H140.622V41.9089H135.523V6.34982Z" fill="white" />
    <path
        d="M156.344 37.2524C153.688 37.2524 151.882 36.0882 150.607 33.6541L166.435 27.1985L165.904 25.8227C164.948 23.1769 161.867 18.3087 155.812 18.3087C149.757 18.3087 144.658 23.0711 144.658 30.0559C144.658 36.6174 149.651 41.8031 156.344 41.8031C161.761 41.8031 164.842 38.5223 166.223 36.6174L162.186 33.9716C160.805 35.9824 158.999 37.2524 156.344 37.2524ZM156.025 22.7536C158.149 22.7536 159.955 23.8119 160.486 25.2935L149.864 29.7384C149.757 24.8702 153.369 22.7536 156.025 22.7536Z"
        fill="white" />
</svg>
